X:655
T:Reel 655
M:4/4
K:Gmaj
L:1/8
c|BdGd BdGd|BdGd BdcB|Bcde dcBd|bgaf gfdg|BGGd Bddd|cdde fdef|gedd ecdB|cedc BGG|c'|bgdg bgd'g|bgdg fgac'|bgdg bgd'g|agfg a2bc'|bgdg bgd'g|agfg abc'a|bgaf gefdec|BGAB cedc|
